static/images/workshop.svg

<svg viewBox="0 0 500 500" xmlns="http://www.w3.org/2000/svg"><rect fill="#f9f7f8" height="77.57" rx="27.95" width="77.57" x="219.75" y="326.37"/><circle cx="232.87" cy="298.42" fill="#520993" r="11.41"/><circle cx="277.36" cy="292.72" fill="#520993" r="11.41"/><path d="m113.69 444.77h-21.69a28 28 0 0 1 -27.95-27.95l1-.67a28 28 0 0 1 27.95-27.95h21.68a28 28 0 0 1 27.95 27.95l-1 .67a28 28 0 0 1 -27.94 27.95z" fill="#f9f7f8"/><path d="m74.54 348.55-9.48 39.65h77.58l-13.64-39.65z" fill="#520993"/><path d="m102 327.45a28.64 28.64 0 0 0 -28.65 28.23h57.3a28.66 28.66 0 0 0 -28.65-28.23z" fill="#520993" stroke="#520993" stroke-miterlimit="10" stroke-width="2"/><path d="m74.48 368.46a27.52 27.52 0 0 0 27.52 27.54 27.52 27.52 0 0 0 27.52-27.52v-11.25c0-.13 0-.27 0-.41h-55v.41z" fill="#fff" stroke="#520993" stroke-miterlimit="10" stroke-width="4"/><path d="m102.14 387.63a8 8 0 0 0 8-8h-16a8 8 0 0 0 8 8z" fill="#f29021"/><path d="m256.69 268.48a28.66 28.66 0 0 0 -28.69 28.23h57.31a28.66 28.66 0 0 0 -28.62-28.23z" fill="#520993"/><path d="m229.16 308.92a27.53 27.53 0 0 0 27.53 27.52 27.52 27.52 0 0 0 27.52-27.52v-11.23c0-.13 0-.27 0-.41h-55v.41z" fill="#fff" stroke="#520993" stroke-miterlimit="10" stroke-width="4"/><path d="m256.83 328.09a8 8 0 0 0 8-8h-16a8 8 0 0 0 8 8z" fill="#f29021"/><g fill="#520993"><circle cx="236.29" cy="284.16" r="11.41"/><circle cx="243.14" cy="276.18" r="11.41"/><circle cx="258.54" cy="274.47" r="11.41"/><circle cx="273.94" cy="277.32" r="11.41"/><circle cx="279.64" cy="285.88" r="11.41"/><circle cx="239.92" cy="292.43" r="11.41"/><circle cx="252.47" cy="293.84" r="7.33"/></g><path d="m412.36 446.44h-21.68a27.94 27.94 0 0 1 -27.94-27.95l1-.67a27.94 27.94 0 0 1 27.94-27.95h21.68a28 28 0 0 1 27.95 27.95l-1 .67a28 28 0 0 1 -27.95 27.95z" fill="#f9f7f8"/><path d="m400.65 330.12a28.28 28.28 0 0 0 -28.27 27.88h56.54a28.28 28.28 0 0 0 -28.27-27.88z" fill="#520993" stroke="#520993" stroke-miterlimit="10" stroke-width="2"/><path d="m373.15 370.13a27.52 27.52 0 0 0 27.52 27.52 27.52 27.52 0 0 0 27.52-27.52v-11.23c0-.13 0-.27 0-.41h-55v.41z" fill="#fff" stroke="#520993" stroke-miterlimit="10" stroke-width="4"/><path d="m400.81 389.3a8 8 0 0 0 8-8h-16a8 8 0 0 0 8 8z" fill="#f29021"/><path d="m217.77 172s23-.24 30.73 0c10.5.32 9.5 32.32 9.5 32.32 11-19.31 20-32 62.62-46.92 13.79-4.82 17.38-24.14 17.38-39.9a54.5 54.5 0 0 0 -54.5-54.5h-65.73a54.5 54.5 0 0 0 -54.5 54.5 54.51 54.51 0 0 0 54.5 54.5z" fill="#f9f7f8"/><circle cx="110.38" cy="290.99" fill="#f29021" r="11.5"/><circle cx="143.7" cy="247.8" fill="#520993" r="8" stroke="#520993" stroke-miterlimit="10" stroke-width="2"/><circle cx="188.39" cy="222.97" fill="#24e2bb" r="5.5"/><circle cx="256.5" cy="223.5" fill="#24e2bb" r="5.5"/><circle cx="398.39" cy="293.99" fill="#f29021" r="11.5"/><circle cx="365.07" cy="250.8" fill="#520993" r="8" stroke="#520993" stroke-miterlimit="10" stroke-width="2"/><circle cx="320.37" cy="225.97" fill="#24e2bb" r="5.5"/></svg>

<svg id="Layer_1" data-name="Layer 1" xmlns="http://www.w3.org/2000/svg" viewBox="0 0 500 500"><defs><style>.cls-1{fill:#f9f7f8;}.cls-2,.cls-3{fill:#520993;}.cls-3,.cls-4{stroke:#520993;stroke-miterlimit:10;}.cls-3{stroke-width:2px;}.cls-4{fill:#fff;stroke-width:4px;}.cls-5{fill:#f29021;}.cls-6{fill:#24e2bb;}</style></defs><title>workshop</title><rect class="cls-1" x="219.75" y="326.37" width="77.57" height="77.57" rx="27.95"/><circle class="cls-2" cx="232.87" cy="298.42" r="11.41"/><circle class="cls-2" cx="277.36" cy="292.72" r="11.41"/><path class="cls-1" d="M113.69,444.77H92a28,28,0,0,1-27.95-27.95l1-.67A28,28,0,0,1,93,388.2h21.68a28,28,0,0,1,27.95,27.95l-1,.67A28,28,0,0,1,113.69,444.77Z"/><polygon class="cls-2" points="74.54 348.55 65.06 388.2 142.64 388.2 129 348.55 74.54 348.55"/><path class="cls-3" d="M102,327.45h0a28.64,28.64,0,0,0-28.65,28.23h57.3A28.66,28.66,0,0,0,102,327.45Z"/><path class="cls-4" d="M74.48,368.46A27.52,27.52,0,0,0,102,396h0a27.52,27.52,0,0,0,27.52-27.52V357.23c0-.13,0-.27,0-.41h-55c0,.14,0,.28,0,.41Z"/><path class="cls-5" d="M102.14,387.63a8,8,0,0,0,8-8h-16A8,8,0,0,0,102.14,387.63Z"/><path class="cls-2" d="M256.69,268.48h0A28.66,28.66,0,0,0,228,296.71h57.31A28.66,28.66,0,0,0,256.69,268.48Z"/><path class="cls-4" d="M229.16,308.92a27.53,27.53,0,0,0,27.53,27.52h0a27.52,27.52,0,0,0,27.52-27.52V297.69c0-.13,0-.27,0-.41h-55c0,.14,0,.28,0,.41Z"/><path class="cls-5" d="M256.83,328.09a8,8,0,0,0,8-8h-16A8,8,0,0,0,256.83,328.09Z"/><circle class="cls-2" cx="236.29" cy="284.16" r="11.41"/><circle class="cls-2" cx="243.14" cy="276.18" r="11.41"/><circle class="cls-2" cx="258.54" cy="274.47" r="11.41"/><circle class="cls-2" cx="273.94" cy="277.32" r="11.41"/><circle class="cls-2" cx="279.64" cy="285.88" r="11.41"/><circle class="cls-2" cx="239.92" cy="292.43" r="11.41"/><circle class="cls-2" cx="252.47" cy="293.84" r="7.33"/><path class="cls-1" d="M412.36,446.44H390.68a27.94,27.94,0,0,1-27.94-27.95l1-.67a27.94,27.94,0,0,1,27.94-27.95h21.68a28,28,0,0,1,27.95,27.95l-1,.67A28,28,0,0,1,412.36,446.44Z"/><path class="cls-3" d="M400.65,330.12h0A28.28,28.28,0,0,0,372.38,358h56.54A28.28,28.28,0,0,0,400.65,330.12Z"/><path class="cls-4" d="M373.15,370.13a27.52,27.52,0,0,0,27.52,27.52h0a27.52,27.52,0,0,0,27.52-27.52V358.9c0-.13,0-.27,0-.41h-55c0,.14,0,.28,0,.41Z"/><path class="cls-5" d="M400.81,389.3a8,8,0,0,0,8-8h-16A8,8,0,0,0,400.81,389.3Z"/><path class="cls-1" d="M217.77,172s23-.24,30.73,0c10.5.32,9.5,32.32,9.5,32.32,11-19.31,20-32,62.62-46.92C334.41,152.58,338,133.26,338,117.5h0A54.5,54.5,0,0,0,283.5,63H217.77a54.5,54.5,0,0,0-54.5,54.5h0A54.51,54.51,0,0,0,217.77,172Z"/><circle class="cls-5" cx="110.38" cy="290.99" r="11.5"/><circle class="cls-3" cx="143.7" cy="247.8" r="8"/><circle class="cls-6" cx="188.39" cy="222.97" r="5.5"/><circle class="cls-6" cx="256.5" cy="223.5" r="5.5"/><circle class="cls-5" cx="398.39" cy="293.99" r="11.5"/><circle class="cls-3" cx="365.07" cy="250.8" r="8"/><circle class="cls-6" cx="320.37" cy="225.97" r="5.5"/></svg>
